X:70
T:Quick Step. JJo.070
S:J.Jones MS,1801,N.Shrops.
A:N Shropshire
Z:Neil Brookes
M:6/8
L:1/8
Q:3/8=120
K:F
c|f2fa2f|a2ge2c|d2f ege|ffff2:|!
|:f|a3 faf|b3 gbg|a2fd2f|ege c2f|!
a3faf|b3gbg|a2fd2e|f2 Hf f2:|

